X:136
T:Doon Reel
M:4/4
L:1/8
R:Reel
K:D
"D" DFAF "G"BFAF| "D"DFAF "A"E2 FE| "D"DFAF "G"BF "D"A2| "Emi"(3Bcd) "A"
ec "D"dB"A"AF|
"D" DFAF "G"BFAF| "D"DFAF "A"E2 FE|"Bmi"DFAF "A"BF A2| "G"(3Bcd) "A"ec "
D"d3:|:
A| "D"d2 fd Adfe| d2 fd "A"BAFA| "D" d2 fd "Bmi"Adfd | "Emi"(3gfe) fd "A
"edBc|
"Bmi" d2 fd "A/C"dfe | "D"defd "A"e3 f | "G"(3gfe) fd "D"edBA | "G"(3Bcd
) "A"ec "D"d3:|
